X:1
T:Heart of Jesus, 11.11.11.11
T:Heart of Jesus, 11.11.11.11
T:Carles Henry Forrest, circa 1897
T:Public Domain Courtesy of the Cyber Hymnal™
C:Carles Henry Forrest, circa 1897
Z:Public Domain
Z:Courtesy of the Cyber Hymnal™
%%score 1 ( 2 3 )
L:1/8
Q:1/4=115
M:4/4
K:F
V:1 treble 
V:2 bass 
V:3 bass 
V:1
 [CA]3 [CA] [=B,G]2 [B,D]2 | [B,F]4 [B,E]4 | [CF]3 [CF] [CE]2 [B,D]2 | [A,C]8 | %4
 [CA]3 [CA] [=B,G]2 [B,G]2 | [Cc]4 [CG]4 | [DF]3 [DF] [=B,G]2 [DF]2 | [CE]8 | %8
 [CF]3 [CF] [Fd]2 [_Ec]2 | [_Ec]4 [DB]4 | [CA]2 [CD]2 [DB]2 [CA]2 | [B,G]8 | %12
 [B,B]3 [B,B] [CA]2 [CG]2 | [Cc]4 [CF]4 | [=B,D]2 [B,F]2 [_B,G]3 [A,F] | [A,F]8 |] %16
V:2
 [F,,F,]3 [F,,F,] [G,,D,]2 [G,,G,]2 | [C,G,]4 [C,G,]4 | [A,,F,]3 [A,,F,] [B,,F,]2 [B,,F,]2 | %3
 [F,,F,]8 | F,3 F, [F,G,]2 [F,G,]2 | [E,G,]4 [E,G,]4 | [D,A,]3 [D,A,] [G,,G,]2 [G,,G,]2 | G,8 | %8
 [A,,F,]3 [A,,F,] [F,,A,]2 [F,,A,]2 | (A,2 F,2) [B,,B,]4 | [D,^F,]2 [D,F,]2 [D,F,]2 [D,F,]2 | %11
 [G,,G,]8 | [G,,G,]3 [G,,G,] [C,F,]2 [B,,E,]2 | [A,,F,]4 [A,,F,]4 | %14
 [G,,F,]2 [G,,D,]2 [C,E,]3 [F,,F,] | [F,,F,]8 |] %16
V:3
 x8 | x8 | x8 | x8 | F,3 F, x4 | x8 | x8 | C,4 B,,4 | x8 | B,,4 x4 | x8 | x8 | x8 | x8 | x8 | x8 |] %16

